X: 80
T: Sibao kang changgong
%%abc-version 2.0
%%abcx-abcm2ps-target-version 5.9.1 (29 Sep 2008)
%%abc-creator hum2abc beta
%%abcx-conversion-date 2013/10/02 07:52:29
%%abc-edited-by Helmut Schaffrath
%%humdrum-veritas 2846281105
%%humdrum-veritas-data 2700886558
%%continueall 1
%%barnumbers 0
L: 1/8
M: 2/4
K: Eb
c B c G [I:setbarnb 1]| 
B2B2 | 
G B c e | 
B4 | 
f> fe2 | 
f g/ f/e2 | 
G B c e | 
B4 | 
G2e2 | 
cc2d | 
c d c B | 
c3d | 
c B A G | 
F4 | 
G2c2 | 
G2B2 | 
G F G B | 
G3B | 
G F E F | 
E4 | 
G F E F | 
G F E F | 
G F E F | 
E4 |]  



